public/flags/TZ.svg

<svg fill="none" height="53" viewBox="0 0 61 53" width="61" xmlns="http://www.w3.org/2000/svg" xmlns:xlink="http://www.w3.org/1999/xlink"><mask id="a" height="43" maskUnits="userSpaceOnUse" width="59" x="1" y="3"><rect fill="#fff" height="42.5" rx="4.24286" width="59" x="1" y="3"/></mask><rect fill="#fff" height="42.5" rx="4.24286" width="59" x="1" y="3"/><g clip-rule="evenodd" fill-rule="evenodd" mask="url(#a)"><path d="m1 31.3333 59-28.3333h-59z" fill="#33cc4d"/><path d="m1 45.5001h59v-28.3334z" fill="#2dafe4"/><path d="m7.49482 51.1667 57.07898-35.9692-11.069-17.86425-57.07902 35.96915z" fill="#ffd84f"/><path d="m-.325916 52.0279 69.095716-43.54172-7.4441-12.01401-69.09572 43.54173z" fill="#262626"/></g></svg>

<svg width="61" height="53" viewBox="0 0 61 53" fill="none" xmlns="http://www.w3.org/2000/svg">
<rect x="1" y="3" width="59" height="42.5" rx="4.24286" fill="white"/>
<mask id="mask0" mask-type="alpha" maskUnits="userSpaceOnUse" x="1" y="3" width="59" height="43">
<rect x="1" y="3" width="59" height="42.5" rx="4.24286" fill="white"/>
</mask>
<g mask="url(#mask0)">
<path fill-rule="evenodd" clip-rule="evenodd" d="M1 31.3333L60 3H1V31.3333Z" fill="#33CC4D"/>
<path fill-rule="evenodd" clip-rule="evenodd" d="M1 45.5001H60V17.1667L1 45.5001Z" fill="#2DAFE4"/>
<path fill-rule="evenodd" clip-rule="evenodd" d="M7.49482 51.1667L64.5738 15.1975L53.5048 -2.66675L-3.57422 33.3024L7.49482 51.1667V51.1667Z" fill="#FFD84F"/>
<path fill-rule="evenodd" clip-rule="evenodd" d="M-0.325916 52.0279L68.7698 8.48618L61.3257 -3.52783L-7.77002 40.0139L-0.325916 52.0279V52.0279Z" fill="#262626"/>
</g>
</svg>
